icons/sliders-24.svg

<svg width="24" height="24" viewBox="0 0 24 24" fill="none" xmlns="http://www.w3.org/2000/svg">
<path fill-rule="evenodd" clip-rule="evenodd" d="M3 6.25C3 5.83579 3.33579 5.5 3.75 5.5H11.25C11.6642 5.5 12 5.83579 12 6.25C12 6.66421 11.6642 7 11.25 7H3.75C3.33579 7 3 6.66421 3 6.25ZM8.75 16C9.16421 16 9.5 16.3358 9.5 16.75V19.75C9.5 20.1642 9.16421 20.5 8.75 20.5C8.33579 20.5 8 20.1642 8 19.75V16.75C8 16.3358 8.33579 16 8.75 16ZM16 12.25C16 11.8358 16.3358 11.5 16.75 11.5H20.25C20.6642 11.5 21 11.8358 21 12.25C21 12.6642 20.6642 13 20.25 13H16.75C16.3358 13 16 12.6642 16 12.25ZM11 18.25C11 17.8358 11.3358 17.5 11.75 17.5H20.25C20.6642 17.5 21 17.8358 21 18.25C21 18.6642 20.6642 19 20.25 19H11.75C11.3358 19 11 18.6642 11 18.25Z" fill="#1F2328"/>
<path d="M3 18.25C3 17.8358 3.33579 17.5 3.75 17.5H8.25C8.66421 17.5 9 17.8358 9 18.25C9 18.6642 8.66421 19 8.25 19H3.75C3.33579 19 3 18.6642 3 18.25Z" fill="#1F2328"/>
<path d="M3 12.25C3 11.8358 3.33579 11.5 3.75 11.5H12.25C12.6642 11.5 13 11.8358 13 12.25C13 12.6642 12.6642 13 12.25 13H3.75C3.33579 13 3 12.6642 3 12.25Z" fill="#1F2328"/>
<path d="M16.75 10C17.1642 10 17.5 10.3358 17.5 10.75V13.75C17.5 14.1642 17.1642 14.5 16.75 14.5C16.3358 14.5 16 14.1642 16 13.75V10.75C16 10.3358 16.3358 10 16.75 10Z" fill="#1F2328"/>
<path d="M14 6.25C14 5.83579 14.3358 5.5 14.75 5.5H20.25C20.6642 5.5 21 5.83579 21 6.25C21 6.66421 20.6642 7 20.25 7H14.75C14.3358 7 14 6.66421 14 6.25Z" fill="#1F2328"/>
<path d="M11.25 4C11.6642 4 12 4.33579 12 4.75V7.75C12 8.16421 11.6642 8.5 11.25 8.5C10.8358 8.5 10.5 8.16421 10.5 7.75V4.75C10.5 4.33579 10.8358 4 11.25 4Z" fill="#1F2328"/>
</svg>

<svg xmlns="http://www.w3.org/2000/svg" width="24" height="24" viewBox="0 0 24 24"><path fill-rule="evenodd" d="M3 6.25a.75.75 0 0 1 .75-.75h7.5a.75.75 0 0 1 0 1.5h-7.5A.75.75 0 0 1 3 6.25ZM8.75 16a.75.75 0 0 1 .75.75v3a.75.75 0 0 1-1.5 0v-3a.75.75 0 0 1 .75-.75ZM16 12.25a.75.75 0 0 1 .75-.75h3.5a.75.75 0 0 1 0 1.5h-3.5a.75.75 0 0 1-.75-.75Zm-5 6a.75.75 0 0 1 .75-.75h8.5a.75.75 0 0 1 0 1.5h-8.5a.75.75 0 0 1-.75-.75Z"/><path d="M3 18.25a.75.75 0 0 1 .75-.75h4.5a.75.75 0 0 1 0 1.5h-4.5a.75.75 0 0 1-.75-.75Zm0-6a.75.75 0 0 1 .75-.75h8.5a.75.75 0 0 1 0 1.5h-8.5a.75.75 0 0 1-.75-.75ZM16.75 10a.75.75 0 0 1 .75.75v3a.75.75 0 0 1-1.5 0v-3a.75.75 0 0 1 .75-.75ZM14 6.25a.75.75 0 0 1 .75-.75h5.5a.75.75 0 0 1 0 1.5h-5.5a.75.75 0 0 1-.75-.75ZM11.25 4a.75.75 0 0 1 .75.75v3a.75.75 0 0 1-1.5 0v-3a.75.75 0 0 1 .75-.75Z"/></svg>
